findly-builder/apps/searchassist/src/assets/icons/iconLink.svg

<svg width="13" height="13" viewBox="0 0 13 13" fill="none" xmlns="http://www.w3.org/2000/svg">
<path d="M10.3789 0C9.68361 0 9.02736 0.273438 8.53908 0.765625L6.73049 2.57031C6.08205 3.21875 5.85158 4.12891 6.03908 4.97266L7.03908 3.97656C7.10939 3.71875 7.2383 3.47656 7.43752 3.27734L9.24611 1.46875C9.5508 1.16797 9.95314 1 10.3789 1C10.8086 1 11.211 1.16797 11.5313 1.48828C11.836 1.79297 12.0039 2.19531 12.0039 2.625C12.0039 3.05078 11.836 3.45703 11.5313 3.75781L9.72658 5.56641C9.53517 5.75781 9.29299 5.88672 9.03908 5.95703L8.02736 6.96875C8.21095 7.01172 8.39846 7.03516 8.59377 7.03516C9.28908 7.03516 9.94142 6.76562 10.4336 6.27344L12.2383 4.46875C13.2539 3.44922 13.2578 1.79688 12.2227 0.765625C11.7305 0.273438 11.0781 0 10.3789 0ZM8.49221 3.99609C8.3633 4 8.24221 4.05469 8.14846 4.14844L4.14846 8.14844C3.95314 8.33984 3.95314 8.66016 4.14846 8.85547C4.34377 9.05078 4.66017 9.05078 4.85939 8.85547L8.85939 4.85547C9.00783 4.71094 9.0508 4.49219 8.96877 4.30078C8.89064 4.10938 8.69924 3.98828 8.49221 3.99609ZM4.41408 5.96484C3.71877 5.96484 3.06642 6.23438 2.57424 6.72656L0.765642 8.53516C-0.249983 9.55078 -0.249983 11.2031 0.785173 12.2383C1.29299 12.7461 1.96096 13 2.62502 13C3.29299 13 3.96096 12.7461 4.46877 12.2383L6.27346 10.4336C6.9258 9.78125 7.15627 8.87109 6.96877 8.03125L5.96877 9.02734C5.89846 9.28125 5.76955 9.52344 5.57033 9.72266L3.76174 11.5312C3.13674 12.1562 2.1133 12.1562 1.47267 11.5117C1.16799 11.207 1.00392 10.8047 1.00392 10.375C1.00392 9.94922 1.16799 9.54688 1.47267 9.24219L3.28127 7.43359C3.47658 7.23828 3.71877 7.10547 3.97658 7.03125L4.98049 6.03125C4.79689 5.99219 4.60939 5.96484 4.41408 5.96484Z" fill="#0D6EFD"/>
</svg>

<svg width="13" height="13" fill="none" xmlns="http://www.w3.org/2000/svg"><path d="M10.379 0a2.58 2.58 0 0 0-1.84.766L6.73 2.57a2.59 2.59 0 0 0-.69 2.403l1-.996c.07-.258.198-.5.398-.7L9.246 1.47a1.603 1.603 0 0 1 2.286.018 1.596 1.596 0 0 1 0 2.27L9.727 5.566c-.192.192-.434.32-.688.391L8.027 6.969a2.582 2.582 0 0 0 2.406-.695l1.805-1.805a2.614 2.614 0 0 0-.015-3.703A2.588 2.588 0 0 0 10.379 0ZM8.492 3.996a.507.507 0 0 0-.344.152l-4 4a.5.5 0 0 0 0 .707.505.505 0 0 0 .711 0l4-4a.497.497 0 0 0 .11-.554.494.494 0 0 0-.477-.305ZM4.414 5.965c-.695 0-1.348.27-1.84.762L.766 8.535a2.614 2.614 0 0 0 .02 3.703A2.597 2.597 0 0 0 2.624 13a2.6 2.6 0 0 0 1.844-.762l1.804-1.804A2.588 2.588 0 0 0 6.97 8.03l-1 .996c-.07.254-.2.496-.399.696L3.762 11.53a1.614 1.614 0 0 1-2.29-.02 1.592 1.592 0 0 1-.468-1.136c0-.426.164-.828.469-1.133L3.28 7.434c.196-.196.438-.329.696-.403l1.003-1a2.707 2.707 0 0 0-.566-.066Z" fill="#0D6EFD"/></svg>
